X:1
T:Title
%%score { 1 | 2 }
L:1/8
M:4/4
K:C
V:1 treble nm="Grand Piano"
V:2 bass 
V:1
 z4 z2[Q:1/4=100] [EG]2 | [Ec]4 [FB]2 [FA]2 | [EG]6 [EG][EG] | AAAA [FB]2 [Ec]2 | [Fd]8 | %5
 [Ee]3 [Ee] d2 [Gc]2 | cA A2 z2 A2 | G2 c2 B2 c2 |[M:3/4] d4 [Ec]2 |] %9
V:2
 z4 z2 [C,C]2 | [C,G,]4 [C,A,]2 [C,B,]2 | [C,C]6 [C,C][C,C] | %3
 [F,CF][F,CF][F,CF][F,CF] [D,D]2 [C,G,]2 | [B,,G,]8 | [C,_B,]3 [C,B,] [D,B,]2 [E,B,]2 | %6
 [F,A,F][F,CF] [F,CF]2 z2 [^F,C_E]2 | [G,CE]2 [G,EG]2 [G,DF]2[K:bass] [G,CE]2 | %8
[M:3/4] [G,,B,F]4 [C,G,C]2 |] %9

